img/ui/icons/filter-two.svg.svg

<svg width="25" height="24" viewBox="0 0 25 24" fill="none" xmlns="http://www.w3.org/2000/svg">
<path d="M19.2002 3H5.2002C3.7862 3 3.0792 3 2.6402 3.412C2.2012 3.824 2.2002 4.488 2.2002 5.815V6.505C2.2002 7.542 2.2002 8.061 2.4602 8.491C2.7202 8.921 3.1932 9.189 4.1422 9.723L7.0552 11.363C7.6912 11.721 8.0102 11.9 8.2382 12.098C8.7122 12.509 9.0042 12.993 9.1362 13.588C9.2002 13.872 9.2002 14.206 9.2002 14.873V17.543C9.2002 18.452 9.2002 18.907 9.4522 19.261C9.7042 19.616 10.1522 19.791 11.0462 20.141C12.9252 20.875 13.8642 21.242 14.5322 20.824C15.2002 20.406 15.2002 19.452 15.2002 17.542V14.872C15.2002 14.206 15.2002 13.872 15.2642 13.587C15.3898 13.0042 15.7061 12.4798 16.1632 12.097C16.3902 11.9 16.7092 11.721 17.3452 11.362L20.2582 9.722C21.2062 9.189 21.6812 8.922 21.9402 8.492C22.2002 8.062 22.2002 7.542 22.2002 6.504V5.814C22.2002 4.488 22.2002 3.824 21.7602 3.412C21.3222 3 20.6152 3 19.2002 3Z" stroke="#0F0F0F" stroke-width="1.5"/>
</svg>

<svg width="25" height="24" fill="none" xmlns="http://www.w3.org/2000/svg"><path d="M19.2 3h-14c-1.414 0-2.12 0-2.56.412-.439.412-.44 1.076-.44 2.403v.69c0 1.037 0 1.556.26 1.986.26.43.733.698 1.682 1.232l2.913 1.64c.636.358.955.537 1.183.735.474.411.766.895.898 1.49.064.284.064.618.064 1.285v2.67c0 .909 0 1.364.252 1.718.252.355.7.53 1.594.88 1.88.734 2.818 1.101 3.486.683.668-.418.668-1.372.668-3.282v-2.67c0-.666 0-1 .064-1.285a2.68 2.68 0 0 1 .9-1.49c.226-.197.545-.376 1.181-.735l2.913-1.64c.948-.533 1.423-.8 1.682-1.23.26-.43.26-.95.26-1.988v-.69c0-1.326 0-1.99-.44-2.402C21.322 3 20.615 3 19.2 3Z" stroke="#0F0F0F" stroke-width="1.5"/></svg>
